img/service-delivery-proccess__03.svg

<svg width="38" height="38" viewBox="0 0 38 38" fill="none" xmlns="http://www.w3.org/2000/svg">
<path d="M25.6797 33.3242C25.27 33.3242 24.9375 33.6567 24.9375 34.0664C24.9375 34.4761 25.27 34.8086 25.6797 34.8086C26.0894 34.8086 26.4219 34.4761 26.4219 34.0664C26.4219 33.6567 26.0894 33.3242 25.6797 33.3242Z" fill="white"/>
<path d="M32.688 26.7027C31.932 25.5908 30.8715 24.7415 29.6211 24.2466L24.1766 22.0919C25.6004 20.7068 26.4218 18.7976 26.4218 16.7734C26.4218 15.9731 26.2966 15.1937 26.0497 14.4473C26.2764 14.3168 26.4218 14.0737 26.4218 13.8047V11.5307L27.7171 8.93993L28.9802 8.3084C29.2318 8.18268 29.3905 7.92566 29.3905 7.64459V5.41796C29.3905 5.09852 29.1861 4.81493 28.883 4.71385L26.7724 4.01033L21.6744 0.150441C21.5455 0.0528436 21.3882 0 21.2265 0H16.7733C16.6115 0 16.4543 0.0528436 16.3254 0.150441L11.2274 4.01025L9.1168 4.71377C8.81369 4.81478 8.60929 5.09845 8.60929 5.41788V7.64444C8.60929 7.92558 8.76812 8.18253 9.01957 8.30825L10.2827 8.93978L11.578 11.5305V13.8047C11.578 14.0737 11.7233 14.3168 11.95 14.4473C11.7029 15.1934 11.578 15.9727 11.578 16.7734C11.578 18.7975 12.3993 20.7067 13.8226 22.0913L8.37766 24.2466C7.12744 24.7414 6.06716 25.5908 5.31139 26.7027C4.55562 27.8145 4.15625 29.1128 4.15625 30.4571V37.2577C4.15625 37.6677 4.4886 37.9999 4.89844 37.9999H18.2568C18.2574 37.9999 18.2579 38 18.2585 38C18.259 38 18.2596 37.9999 18.2602 37.9999H19.7399C19.7404 37.9999 19.741 38 19.7415 38C19.7421 38 19.7426 37.9999 19.7432 37.9999H33.1016C33.5114 37.9999 33.8438 37.6677 33.8438 37.2577V30.4578C33.8436 29.1133 33.444 27.8148 32.688 26.7027ZM26.5089 24.6113L21.9686 32.1329V29.8856C21.9686 29.4063 21.8103 28.9317 21.5233 28.5497L20.2133 26.8029C20.8226 26.4051 21.2265 25.7178 21.2265 24.9375V23.8541C21.7793 23.6808 22.3077 23.4441 22.8055 23.1457L26.5089 24.6113ZM11.4997 8.0548C11.4278 7.91118 11.3114 7.79466 11.1677 7.72289L10.0936 7.18585V5.95293L11.8126 5.37988C11.8894 5.35428 11.9614 5.31635 12.0259 5.26752L17.0226 1.48437H20.9772L25.9737 5.26752C26.0382 5.31635 26.1103 5.35428 26.187 5.37988L27.9061 5.95293V7.18585L26.832 7.72289C26.6883 7.79473 26.5718 7.91118 26.5 8.0548L25.2208 10.6133H12.7789L11.4997 8.0548ZM13.0624 12.0976H24.9374V13.2672L22.9965 13.9055C21.7009 14.3311 20.3536 14.5468 18.9917 14.5468C18.3092 14.5468 17.6226 14.4919 16.9509 14.3834C16.2806 14.2752 15.6111 14.1116 14.9617 13.8972L13.5282 13.4228C13.4644 13.3484 13.3848 13.2853 13.2911 13.2395C13.217 13.2033 13.1399 13.1812 13.0624 13.171V12.0976ZM13.0624 16.7734C13.0624 16.1382 13.161 15.5204 13.3549 14.9289L14.4959 15.3066C15.2203 15.5457 15.9667 15.7281 16.7144 15.8489C17.464 15.9699 18.2303 16.0313 18.9917 16.0313C20.5112 16.0313 22.0145 15.7906 23.4601 15.3158L24.6446 14.9263C24.8389 15.5187 24.9375 16.1376 24.9375 16.7735C24.9375 18.7433 23.965 20.5776 22.3347 21.6865C22.3232 21.6937 22.3121 21.7015 22.301 21.7093C21.6964 22.1152 21.0301 22.4029 20.32 22.5639C19.4603 22.7592 18.5398 22.7592 17.6798 22.5639C16.9656 22.402 16.295 22.1117 15.6859 21.7007C14.0431 20.594 13.0624 18.7521 13.0624 16.7734ZM19.7421 24.1578V24.9375C19.7421 25.3467 19.4091 25.6796 18.9999 25.6796C18.8019 25.6796 18.6155 25.6024 18.4753 25.4621C18.335 25.3218 18.2577 25.1355 18.2577 24.9375V24.1578C18.5039 24.1823 18.7516 24.1953 18.9999 24.1953C19.2482 24.1953 19.4959 24.1823 19.7421 24.1578ZM15.1936 23.1449C15.692 23.4438 16.2206 23.6807 16.7733 23.854V24.9375C16.7733 25.5319 17.005 26.091 17.4257 26.5118C17.5367 26.6227 17.6574 26.72 17.7857 26.8039L16.4768 28.5492C16.1895 28.9317 16.0312 29.4063 16.0312 29.8856V32.1332L11.4909 24.6107L15.1936 23.1449ZM5.64055 36.5156V30.4571C5.64055 28.3122 6.92935 26.4163 8.9239 25.6268L10.0914 25.1646L16.0764 35.0808L16.9426 36.5156H5.64055ZM20.4842 34.592L19.3232 36.5156H18.6765L17.5155 34.5926V29.8856C17.5155 29.7258 17.568 29.5679 17.6639 29.4403L18.9998 27.6589L20.3361 29.4408C20.4316 29.5679 20.4842 29.7258 20.4842 29.8856V34.592ZM21.057 36.5156L27.9084 25.1652L29.0751 25.6269C31.0701 26.4165 32.3592 28.3128 32.3592 30.4578V36.5156H21.057Z" fill="white"/>
<path d="M30.1328 33.3242H28.6484C28.2386 33.3242 27.9062 33.6565 27.9062 34.0664C27.9062 34.4763 28.2386 34.8086 28.6484 34.8086H30.1328C30.5426 34.8086 30.875 34.4763 30.875 34.0664C30.875 33.6565 30.5426 33.3242 30.1328 33.3242Z" fill="white"/>
<path d="M19 3.19141C17.363 3.19141 16.0312 4.52319 16.0312 6.16015C16.0312 7.79712 17.363 9.12889 19 9.12889C20.637 9.12889 21.9687 7.79712 21.9687 6.16015C21.9687 4.52319 20.637 3.19141 19 3.19141ZM19 7.64452C18.1815 7.64452 17.5156 6.97863 17.5156 6.16015C17.5156 5.34167 18.1814 4.67578 19 4.67578C19.8185 4.67578 20.4844 5.34167 20.4844 6.16015C20.4844 6.97863 19.8185 7.64452 19 7.64452Z" fill="white"/>
</svg>

<svg width="38" height="38" fill="none" xmlns="http://www.w3.org/2000/svg"><path d="M25.68 33.324a.742.742 0 100 1.485.742.742 0 000-1.485z" fill="#fff"/><path d="M32.688 26.703a6.657 6.657 0 00-3.067-2.456l-5.444-2.155a7.412 7.412 0 002.245-5.319c0-.8-.125-1.58-.372-2.326a.742.742 0 00.372-.642V11.53l1.295-2.591 1.263-.632a.742.742 0 00.41-.663V5.418a.742.742 0 00-.507-.704l-2.11-.704-5.1-3.86a.742.742 0 00-.447-.15h-4.454a.742.742 0 00-.448.15l-5.098 3.86-2.11.704a.742.742 0 00-.508.704v2.226c0 .282.16.539.41.664l1.264.632 1.295 2.59v2.275a.74.74 0 00.372.642 7.37 7.37 0 00-.372 2.326c0 2.024.821 3.934 2.245 5.318l-5.445 2.156a6.654 6.654 0 00-3.067 2.456 6.653 6.653 0 00-1.155 3.754v6.8c0 .41.333.743.742.743h28.204c.41 0 .742-.332.742-.742v-6.8c0-1.345-.4-2.643-1.156-3.755zm-6.18-2.092l-4.54 7.522v-2.247c0-.48-.158-.954-.445-1.336l-1.31-1.747a2.226 2.226 0 001.014-1.866v-1.083a7.331 7.331 0 001.578-.708l3.704 1.465zM11.5 8.055a.742.742 0 00-.332-.332l-1.074-.537V5.953l1.719-.573a.742.742 0 00.213-.112l4.997-3.784h3.954l4.997 3.784a.743.743 0 00.213.112l1.72.573v1.233l-1.075.537a.742.742 0 00-.332.332l-1.28 2.558H12.78L11.5 8.055zm1.562 4.043h11.875v1.17l-1.94.637a12.81 12.81 0 01-8.035-.008l-1.434-.474a.74.74 0 00-.466-.252v-1.073zm0 4.675c0-.635.099-1.253.293-1.844l1.14.378a14.335 14.335 0 008.964.01l1.186-.39a5.935 5.935 0 01-2.31 6.76l-.034.022a5.869 5.869 0 01-1.981.855 6.03 6.03 0 01-2.64 0 5.933 5.933 0 01-4.617-5.79zm6.68 7.385v.78a.743.743 0 01-1.484 0v-.78a7.496 7.496 0 001.484 0zm-4.548-1.013a7.33 7.33 0 001.58.709v1.084a2.212 2.212 0 001.012 1.866l-1.31 1.745a2.239 2.239 0 00-.445 1.337v2.247l-4.54-7.522 3.703-1.466zM5.64 36.515v-6.058a5.167 5.167 0 013.283-4.83l1.167-.462 5.985 9.916.867 1.435H5.64zm14.843-1.923l-1.16 1.924h-.648l-1.16-1.923v-4.707c0-.16.052-.318.148-.446L19 27.66l1.336 1.782a.745.745 0 01.148.445v4.706zm.573 1.924l6.851-11.35 1.167.46a5.168 5.168 0 013.284 4.832v6.058H21.057z" fill="#fff"/><path d="M30.133 33.324h-1.485a.742.742 0 000 1.485h1.485a.742.742 0 000-1.485zM19 3.191a2.972 2.972 0 00-2.969 2.97A2.972 2.972 0 0019 9.128a2.972 2.972 0 002.969-2.969A2.972 2.972 0 0019 3.191zm0 4.454a1.486 1.486 0 01-1.484-1.485c0-.818.665-1.484 1.484-1.484a1.485 1.485 0 010 2.969z" fill="#fff"/></svg>
